src/icons/service-aws.svg

<svg enable-background="new 0 0 14 10" viewBox="0 0 14 10" xmlns="http://www.w3.org/2000/svg"><g><path d="m4 3.9v.4c0 .1.1.2.1.3v.1c0 .1 0 .1-.1.1l-.1.2h-.1s-.1 0-.1-.1c-.1.1-.2 0-.2-.1s-.1-.2-.1-.3c-.4.5-.9.7-1.4.7-.4 0-.7-.1-.9-.3s-.4-.6-.4-.9c0-.4.1-.7.4-.9s.6-.4 1.1-.4h.5c.2 0 .3.1.5.1v-.3c0-.3-.1-.6-.2-.7-.1-.2-.3-.2-.7-.2-.2 0-.3 0-.5.1-.2 0-.3.1-.5.2 0 0-.1 0-.2.1 0 0 0 0-.1 0 0-.2 0-.2 0-.3v-.2c0-.1 0-.1 0-.2l.1-.1c.3-.1.4-.1.6-.2.3 0 .5-.1.8-.1.5 0 .9.1 1.2.4s.3.6.3 1.1zm-1.8.7c.2 0 .3 0 .5-.1.1-.1.3-.2.4-.3s.1-.2.1-.3 0-.3 0-.4v-.2c-.1 0-.2 0-.3-.1-.1 0-.3 0-.4 0-.3 0-.5.1-.7.2s-.3.3-.3.5.1.4.2.5.3.2.5.2zm3.6.5c-.1 0-.1 0-.2 0 0 0-.1-.1-.1-.2l-1-3.6c0-.1 0-.1 0-.2s0-.1.1-.1h.4.2s.1.1.1.2l.8 3 .7-3c0-.1 0-.1.1-.2h.2.4.2s.1.1.1.2l.7 3 .8-3c0-.1 0-.1.1-.2h.2.4c.1 0 .1 0 .1.1v.1.1l-1.3 3.5c0 .1 0 .2-.1.2 0 0-.1 0-.2 0h-.3c-.1.1-.2.1-.2 0 0 0-.1-.1-.1-.2l-.7-2.9-.7 2.9c0 .1 0 .1-.1.2-.1 0-.1 0-.2 0zm5.9.1c-.2 0-.5 0-.7-.1s-.4-.1-.5-.2c-.1 0-.1-.1-.1-.1v-.1-.3c0-.1 0-.1.1-.1h.1.1c.2.1.3.1.5.2.2 0 .4.1.5.1.3 0 .5 0 .7-.1.1-.1.2-.3.2-.4s0-.2-.1-.3-.2-.2-.5-.2l-.7-.2c-.3-.1-.6-.3-.7-.5s-.2-.4-.2-.7c0-.2 0-.3.1-.5.1-.1.2-.3.3-.4s.3-.2.5-.2c.2-.1.4-.1.6-.1h.3.3c.1 0 .2 0 .3.1.1 0 .1 0 .2.1.1 0 .1.1.1.1v.1.2c0 .1 0 .1-.1.1s-.1 0-.2-.1c-.3-.1-.6-.2-.9-.2s-.5 0-.6.1-.2.2-.2.4c0 .1 0 .2.1.3s.3.2.5.2l.6.2c.3.1.6.2.7.4s.2.4.2.6 0 .4-.1.5c-.1.2-.2.3-.3.4-.1.5-.3.5-.5.6s-.4.1-.6.1z" fill="#252f3e"/><g fill="#f90" transform="translate(0 6)"><path d="m12.5 1.4c-1.5 1.1-3.6 1.7-5.5 1.7-2.6 0-5-1-6.7-2.6-.1-.1 0-.3.2-.2 1.9 1.1 4.3 1.8 6.7 1.8 1.8 0 3.5-.4 5.1-1.1.2-.1.5.2.2.4z"/><path d="m13.1.7c-.2-.2-1.3-.1-1.7-.1-.1 0-.2-.1 0-.2.9-.6 2.3-.4 2.4-.2.2.2 0 1.6-.8 2.3-.1.1-.2 0-.2-.1.1-.5.5-1.5.3-1.7z"/></g></g></svg>

<?xml version="1.0" encoding="utf-8"?>
<!-- Generator: Adobe Illustrator 20.1.0, SVG Export Plug-In . SVG Version: 6.00 Build 0)  -->
<svg version="1.1" id="Layer_1" xmlns="http://www.w3.org/2000/svg" xmlns:xlink="http://www.w3.org/1999/xlink" x="0px" y="0px"
	 viewBox="0 0 14 10" style="enable-background:new 0 0 14 10;" xml:space="preserve">
<style type="text/css">
	.st0{fill:#252F3E;}
	.st1{fill:#FF9900;}
</style>
<title>HDL/Icon/Standard/Service/aws</title>
<desc>Created with Sketch.</desc>
<g id="Colors">
	<g id="Service-icons" transform="translate(-125.000000, -363.000000)">
		<g id="AWS_1_" transform="translate(100.000000, 353.000000)">
			<g id="HDL_x2F_Icon_x2F_Standard_x2F_Service_x2F_aws" transform="translate(25.000000, 10.000000)">
				<g id="AWS">
					<path id="Shape" class="st0" d="M4,3.9v0.4c0,0.1,0.1,0.2,0.1,0.3v0.1c0,0.1,0,0.1-0.1,0.1L3.9,5H3.8c0,0-0.1,0-0.1-0.1
						C3.6,5,3.5,4.9,3.5,4.8c0-0.1-0.1-0.2-0.1-0.3C3,5,2.5,5.2,2,5.2c-0.4,0-0.7-0.1-0.9-0.3C0.9,4.7,0.7,4.3,0.7,4
						c0-0.4,0.1-0.7,0.4-0.9c0.3-0.2,0.6-0.4,1.1-0.4h0.5c0.2,0,0.3,0.1,0.5,0.1V2.5c0-0.3-0.1-0.6-0.2-0.7C2.9,1.6,2.7,1.6,2.3,1.6
						c-0.2,0-0.3,0-0.5,0.1c-0.2,0-0.3,0.1-0.5,0.2c0,0-0.1,0-0.2,0.1c0,0,0,0-0.1,0c0-0.2,0-0.2,0-0.3V1.5c0-0.1,0-0.1,0-0.2
						l0.1-0.1C1.4,1.1,1.5,1.1,1.7,1C2,1,2.2,0.9,2.5,0.9C3,0.9,3.4,1,3.7,1.3S4,1.9,4,2.4V3.9z M2.2,4.6c0.2,0,0.3,0,0.5-0.1
						C2.8,4.4,3,4.3,3.1,4.2C3.2,4.1,3.2,4,3.2,3.9c0-0.1,0-0.3,0-0.4V3.3c-0.1,0-0.2,0-0.3-0.1c-0.1,0-0.3,0-0.4,0
						C2.2,3.2,2,3.3,1.8,3.4C1.6,3.5,1.5,3.7,1.5,3.9c0,0.2,0.1,0.4,0.2,0.5C1.8,4.5,2,4.6,2.2,4.6L2.2,4.6z M5.8,5.1
						c-0.1,0-0.1,0-0.2,0c0,0-0.1-0.1-0.1-0.2l-1-3.6c0-0.1,0-0.1,0-0.2S4.5,1,4.6,1H5h0.2c0,0,0.1,0.1,0.1,0.2l0.8,3l0.7-3
						c0-0.1,0-0.1,0.1-0.2h0.2h0.4h0.2c0,0,0.1,0.1,0.1,0.2l0.7,3l0.8-3c0-0.1,0-0.1,0.1-0.2h0.2H10c0.1,0,0.1,0,0.1,0.1v0.1v0.1
						L8.8,4.8c0,0.1,0,0.2-0.1,0.2c0,0-0.1,0-0.2,0H8.2C8.1,5.1,8,5.1,8,5c0,0-0.1-0.1-0.1-0.2L7.2,1.9L6.5,4.8c0,0.1,0,0.1-0.1,0.2
						C6.3,5,6.3,5,6.2,5L5.8,5.1L5.8,5.1z M11.7,5.2c-0.2,0-0.5,0-0.7-0.1S10.6,5,10.5,4.9c-0.1,0-0.1-0.1-0.1-0.1V4.7V4.4
						c0-0.1,0-0.1,0.1-0.1h0.1h0.1c0.2,0.1,0.3,0.1,0.5,0.2c0.2,0,0.4,0.1,0.5,0.1c0.3,0,0.5,0,0.7-0.1c0.1-0.1,0.2-0.3,0.2-0.4
						s0-0.2-0.1-0.3c-0.1-0.1-0.2-0.2-0.5-0.2l-0.7-0.2c-0.3-0.1-0.6-0.3-0.7-0.5c-0.1-0.2-0.2-0.4-0.2-0.7c0-0.2,0-0.3,0.1-0.5
						c0.1-0.1,0.2-0.3,0.3-0.4c0.1-0.1,0.3-0.2,0.5-0.2C11.5,1,11.7,1,11.9,1h0.3h0.3c0.1,0,0.2,0,0.3,0.1c0.1,0,0.1,0,0.2,0.1
						c0.1,0,0.1,0.1,0.1,0.1v0.1v0.2c0,0.1,0,0.1-0.1,0.1s-0.1,0-0.2-0.1c-0.3-0.1-0.6-0.2-0.9-0.2c-0.3,0-0.5,0-0.6,0.1
						c-0.1,0.1-0.2,0.2-0.2,0.4c0,0.1,0,0.2,0.1,0.3c0.1,0.1,0.3,0.2,0.5,0.2l0.6,0.2C12.6,2.7,12.9,2.8,13,3s0.2,0.4,0.2,0.6
						c0,0.2,0,0.4-0.1,0.5c-0.1,0.2-0.2,0.3-0.3,0.4C12.7,5,12.5,5,12.3,5.1S11.9,5.2,11.7,5.2L11.7,5.2z"/>
					<g id="Group" transform="translate(0.000000, 6.000000)">
						<path id="Path" class="st1" d="M12.5,1.4C11,2.5,8.9,3.1,7,3.1c-2.6,0-5-1-6.7-2.6c-0.1-0.1,0-0.3,0.2-0.2
							c1.9,1.1,4.3,1.8,6.7,1.8c1.8,0,3.5-0.4,5.1-1.1C12.5,0.9,12.8,1.2,12.5,1.4L12.5,1.4z"/>
						<path id="Path_1_" class="st1" d="M13.1,0.7c-0.2-0.2-1.3-0.1-1.7-0.1c-0.1,0-0.2-0.1,0-0.2c0.9-0.6,2.3-0.4,2.4-0.2
							c0.2,0.2,0,1.6-0.8,2.3c-0.1,0.1-0.2,0-0.2-0.1C12.9,1.9,13.3,0.9,13.1,0.7L13.1,0.7z"/>
					</g>
				</g>
			</g>
		</g>
	</g>
</g>
</svg>
